X:1
T:Bummers Reel
M:2/4
L:1/8
R:Reel
Z:AK/Fiddlers Companion
K:G
B/A/ | G/B/D/G/ BB/A/ | G/B/e/d/ B/d/B/G/ | F/A/D/F/ A/D/F/A/ | G/B/e/d/ B/d/B/A/ | 
G/B/D/G/ BB/A/ | G/B/e/d/ B/d/B/G/ | F/A/D/F/ A/D/F/A/ | GBG :: z/d/ | ef gf/e/ | d/B/d BA/G/ | 
F/A/D/F/ A/D/F/A/ | G/B/e/d/ B/d/B/G/ | ef gf/e/ | d/B/d BA/G/ | F/A/D/F/ A/D/F/A/ | GBG :|
